symbols-de/shields/motorway_11x3_z18.svg

<?xml version="1.0" encoding="UTF-8" standalone="no"?>
<svg
   xmlns:dc="http://purl.org/dc/elements/1.1/"
   xmlns:cc="http://creativecommons.org/ns#"
   xmlns:rdf="http://www.w3.org/1999/02/22-rdf-syntax-ns#"
   xmlns:svg="http://www.w3.org/2000/svg"
   xmlns="http://www.w3.org/2000/svg"
   xmlns:sodipodi="http://sodipodi.sourceforge.net/DTD/sodipodi-0.dtd"
   xmlns:inkscape="http://www.inkscape.org/namespaces/inkscape"
   width="100%"
   height="100%"
   viewBox="0 0 89.0 39.0"
   id="svg2"
   version="1.1"
   inkscape:version="0.91 r13725"
   sodipodi:docname="autobahn_11x3_z18.svg">
  <metadata
     id="metadata9">
    <rdf:RDF>
      <cc:Work
         rdf:about="">
        <dc:format>image/svg+xml</dc:format>
        <dc:type
           rdf:resource="http://purl.org/dc/dcmitype/StillImage" />
        <dc:title></dc:title>
      </cc:Work>
    </rdf:RDF>
  </metadata>
  <defs
     id="defs7" />
  <sodipodi:namedview
     pagecolor="#ffffff"
     bordercolor="#666666"
     borderopacity="1"
     objecttolerance="10"
     gridtolerance="10"
     guidetolerance="10"
     inkscape:pageopacity="0"
     inkscape:pageshadow="2"
     inkscape:window-width="949"
     inkscape:window-height="629"
     id="namedview5"
     showgrid="false"
     inkscape:zoom="3.9662921"
     inkscape:cx="44.5"
     inkscape:cy="19.5"
     inkscape:window-x="353"
     inkscape:window-y="235"
     inkscape:window-maximized="0"
     inkscape:current-layer="svg2" />
  <path
     style="fill:#365eaf;fill-opacity:1;stroke:#0528a2;stroke-width:0.99999994;stroke-miterlimit:4;stroke-dasharray:none;stroke-opacity:1"
     d="m 44.500003,0.50000103 c -0.630821,0 -0.945312,0.003909 -0.945312,0.0139189 L 1.9212748,2.6152382 C 0.97503829,2.7159925 0.49999999,2.8683095 0.49999999,3.0698278 l 0,32.8603462 c 0,0.201519 0.4750383,0.35383 1.42127481,0.454589 l 41.6334162,2.101318 c 0,0.0101 0.314499,0.01392 0.945312,0.01392 0.630826,0 0.945314,-0.0038 0.945314,-0.01392 L 87.07873,36.384762 c 0.946241,-0.100754 1.213833,-0.266673 1.421272,-0.454589 0,-17.646727 0,-17.269567 0,-32.8603463 0,-0.2015183 -0.475031,-0.3538332 -1.421272,-0.4545896 L 45.445317,0.5139188 c 0,-0.0100971 -0.314498,-0.0139189 -0.945314,-0.0139189 z"
     id="path6"
     inkscape:connector-curvature="0"
     sodipodi:nodetypes="sccccccsccccccs" />
</svg>

<?xml version="1.0" encoding="UTF-8"?>
<svg xmlns="http://www.w3.org/2000/svg" xmlns:xlink="http://www.w3.org/1999/xlink" width="85pt" height="51pt" viewBox="0 0 85 51" version="1.1">
<g id="surface1">
<path style="fill-rule:nonzero;fill:rgb(21.176471%,36.862745%,68.627451%);fill-opacity:1;stroke-width:1;stroke-linecap:butt;stroke-linejoin:miter;stroke:rgb(1.960784%,15.686275%,63.529412%);stroke-opacity:1;stroke-miterlimit:4;" d="M 44.5 0.498851 C 43.870129 0.498851 43.555193 0.504825 43.555193 0.513787 L 1.922335 2.616728 C 0.973438 2.715303 0.498989 2.867647 0.498989 3.070772 L 0.498989 35.929228 C 0.498989 36.132353 0.973438 36.284697 1.922335 36.383272 L 43.555193 38.486213 C 43.555193 38.495175 43.870129 38.501149 44.5 38.501149 C 45.129871 38.501149 45.444807 38.495175 45.444807 38.486213 L 87.077665 36.383272 C 88.026563 36.284697 88.292417 36.117417 88.501011 35.929228 C 88.501011 18.284237 88.501011 18.660616 88.501011 3.070772 C 88.501011 2.867647 88.026563 2.715303 87.077665 2.616728 L 45.444807 0.513787 C 45.444807 0.504825 45.129871 0.498851 44.5 0.498851 Z M 44.5 0.498851 " transform="matrix(0.955056,0,0,1.307692,0,0)"/>
</g>
</svg>
